icon/pk/boy-stroller.svg

<svg width="48" height="48" fill="none" xmlns="http://www.w3.org/2000/svg"><path d="M40 24H12l2.5 10H36l4-10Z" fill="#2F88FF" stroke="#000" stroke-width="4" stroke-linecap="round" stroke-linejoin="round"/><path d="m12 24-4-9H3.5" stroke="#000" stroke-width="4" stroke-linecap="round" stroke-linejoin="round"/><circle cx="20" cy="41" r="3" fill="#2F88FF" stroke="#000" stroke-width="4" stroke-linecap="round" stroke-linejoin="round"/><circle cx="31" cy="41" r="3" fill="#2F88FF" stroke="#000" stroke-width="4" stroke-linecap="round" stroke-linejoin="round"/><path d="m23 8 9 16h8l4-11c-2.333-3-7-9-10-9-4 0-8.333 2.667-11 4Z" fill="#2F88FF" stroke="#000" stroke-width="4" stroke-linecap="round" stroke-linejoin="round"/><path d="m29 5 4 7" stroke="#000" stroke-width="4" stroke-linecap="round" stroke-linejoin="round"/></svg>

<svg viewBox="0 0 48 48" fill="none" xmlns="http://www.w3.org/2000/svg" height="1em" width="1em">
  <path d="M40 24H12L14.5 34H36L40 24Z" fill="#2F88FF" stroke="black" stroke-width="4" stroke-linecap="round" stroke-linejoin="round"/>
  <path d="M12 24L8 15H3.5" stroke="black" stroke-width="4" stroke-linecap="round" stroke-linejoin="round"/>
  <circle cx="20" cy="41" r="3" fill="#2F88FF" stroke="black" stroke-width="4" stroke-linecap="round" stroke-linejoin="round"/>
  <circle cx="31" cy="41" r="3" fill="#2F88FF" stroke="black" stroke-width="4" stroke-linecap="round" stroke-linejoin="round"/>
  <path d="M23 8L32 24H40L44 13C41.6667 10 37 4 34 4C30 4 25.6667 6.66667 23 8Z" fill="#2F88FF" stroke="black" stroke-width="4" stroke-linecap="round" stroke-linejoin="round"/>
  <path d="M29 5L33 12" stroke="black" stroke-width="4" stroke-linecap="round" stroke-linejoin="round"/>
</svg>
